X: 1
T: Nuuskapolkka
M: 2/4
L: 1/8
P: G2 D2 ...
K: G
"G:"[|]\
"D7"D \
|: "G"GG/A/ BB | "D7"AA/B/ cc | "G"BB "D7"AA |1 "G"GB D2 :|2 "G"GB G ||
G/B/ \
|| "G"dd BG | "C"e2 z2 | "D7"cc Ae | "G"d2 z2 \
"I"\
| dd BG | "C"ez "G"dz | "D7"cz Az | "G"G2z |]
[K:D]"D:"[|]\
"A7"A \
|: "D"dd/e/ ff | "A7"ee/f/ gg | "D"ff "A7"ee |1 "D"df A2 :|2 "D"df "fine"d ||
d/f/ \
|| "D"aa fd | "G"b2 z2 | "A7"gg eb | "D"a2 z2 \
| aa fd | "G"bz "D"az | "A7"gz ez | "D"d2z |]

%%sep 1 1 500

